www/assets/icons/barcode.svg

<svg xmlns="http://www.w3.org/2000/svg" width="24" height="24" viewBox="0 0 24 24" fill='currentColor'><mask id="a" width="24" height="24" x="0" y="0" maskUnits="userSpaceOnUse" style="mask-type:alpha"><path d="M0 0h24v24H0z"/></mask><g mask="url(#a)"><path d="M1 19V5h2v14zm3 0V5h2v14zm3 0V5h1v14zm3 0V5h2v14zm3 0V5h3v14zm4 0V5h1v14zm3 0V5h3v14z"/></g></svg>

<svg width="24" height="24" viewBox="0 0 24 24" xmlns="http://www.w3.org/2000/svg" fill='currentColor'><mask id="mask0_32484_480" style="mask-type:alpha" maskUnits="userSpaceOnUse" x="0" y="0" width="24" height="24"><rect width="24" height="24"/></mask><g mask="url(#mask0_32484_480)"><path d="M1 19V5H3V19H1ZM4 19V5H6V19H4ZM7 19V5H8V19H7ZM10 19V5H12V19H10ZM13 19V5H16V19H13ZM17 19V5H18V19H17ZM20 19V5H23V19H20Z"/></g></svg>
